icons/numix/32x32/mimetypes/application-vnd.oasis.opendocument.image-template.svg

<?xml version="1.0" encoding="UTF-8" standalone="no"?>
<svg
   xmlns:dc="http://purl.org/dc/elements/1.1/"
   xmlns:cc="http://creativecommons.org/ns#"
   xmlns:rdf="http://www.w3.org/1999/02/22-rdf-syntax-ns#"
   xmlns:svg="http://www.w3.org/2000/svg"
   xmlns="http://www.w3.org/2000/svg"
   xmlns:sodipodi="http://sodipodi.sourceforge.net/DTD/sodipodi-0.dtd"
   xmlns:inkscape="http://www.inkscape.org/namespaces/inkscape"
   width="32"
   height="32"
   viewBox="0 0 32 32"
   id="svg2"
   version="1.1"
   inkscape:version="0.48.5 r10040"
   sodipodi:docname="application-vnd.oasis.opendocument.image-template.svg">
  <metadata
     id="metadata22">
    <rdf:RDF>
      <cc:Work
         rdf:about="">
        <dc:format>image/svg+xml</dc:format>
        <dc:type
           rdf:resource="http://purl.org/dc/dcmitype/StillImage" />
      </cc:Work>
    </rdf:RDF>
  </metadata>
  <defs
     id="defs20" />
  <sodipodi:namedview
     pagecolor="#ffffff"
     bordercolor="#666666"
     borderopacity="1"
     objecttolerance="10"
     gridtolerance="10"
     guidetolerance="10"
     inkscape:pageopacity="0"
     inkscape:pageshadow="2"
     inkscape:window-width="1280"
     inkscape:window-height="970"
     id="namedview18"
     showgrid="true"
     inkscape:zoom="14.75"
     inkscape:cx="15.234668"
     inkscape:cy="11.808125"
     inkscape:window-x="0"
     inkscape:window-y="0"
     inkscape:window-maximized="1"
     inkscape:current-layer="svg2">
    <inkscape:grid
       type="xygrid"
       id="grid3010" />
  </sodipodi:namedview>
  <path
     inkscape:connector-curvature="0"
     style="fill:#edaf02;fill-opacity:1"
     d="M 5.34375,4.8e-7 C 4.6562764,1.548e-5 4,0.6890075 4,1.4062505 L 4,30.59375 C 4,31.270239 4.6953364,32 5.34375,32 l 21.3125,0 C 27.304664,32 28,31.270239 28,30.59375 L 28,8.9999999 28,1.3750005 C 28,0.7020495 27.297951,4.8e-7 26.625,4.8e-7 l -7.625,0 -13.65625,0 z"
     id="path4-1" />
  <path
     style="fill:#000000;fill-opacity:0.19599998"
     d="m 4,24 0,6.667969 C 4,31.316407 4.6875,32 5.332031,32 l 21.335938,0 C 27.3125,32 28,31.316407 28,30.667969 L 28,24 z"
     id="path3009"
     inkscape:connector-curvature="0" />
  <path
     style="fill:#ffffff"
     d="m 9.9999995,21 0,-11.9999995 L 22,9.0000005 22,21 l -6.999999,0 0,-6 L 18,15 l 0,2 -1,0 0,2 3,0 0,-8 -7.999999,0 0,10 z"
     id="path3027"
     inkscape:connector-curvature="0"
     sodipodi:nodetypes="ccccccccccccccc" />
  <g
     style="fill:#ffffff"
     id="g10"
     transform="matrix(1.0568245,0,0,1.0568245,-0.95606499,-0.59310938)">
    <path
       d="m 10.507812,27.332031 c 0,0.25 0.0078,0.484375 0.02734,0.703125 0.02344,0.214844 0.07031,0.402344 0.132813,0.5625 0.06641,0.160156 0.160156,0.285156 0.28125,0.378906 0.117187,0.09375 0.277343,0.140626 0.476562,0.140626 0.195313,0 0.351563,-0.04688 0.472657,-0.140626 0.125,-0.09375 0.21875,-0.21875 0.28125,-0.378906 0.06641,-0.167968 0.113281,-0.355468 0.128906,-0.570312 0.02734,-0.214844 0.03906,-0.445313 0.03906,-0.695313 0,-0.246093 -0.01172,-0.476562 -0.03906,-0.691406 -0.01563,-0.222656 -0.0625,-0.410156 -0.128906,-0.570313 -0.0625,-0.160156 -0.15625,-0.285156 -0.273438,-0.378906 -0.117188,-0.09375 -0.277344,-0.140625 -0.480469,-0.140625 -0.199219,0 -0.359375,0.04687 -0.476562,0.140625 -0.121094,0.09375 -0.214844,0.222656 -0.28125,0.386719 -0.0625,0.160156 -0.109375,0.347656 -0.132813,0.5625 -0.01953,0.214844 -0.02734,0.445313 -0.02734,0.691406 m -1.175781,0 c 0,-0.878906 0.1875,-1.542969 0.554688,-1.988281 0.371093,-0.453125 0.882812,-0.675781 1.539062,-0.675781 0.683594,0 1.203125,0.222656 1.558594,0.675781 0.359375,0.445312 0.535156,1.109375 0.535156,1.988281 0,0.882813 -0.179687,1.546875 -0.542969,2 C 12.613281,29.777344 12.101562,30 11.4375,30 c -0.683594,0 -1.207031,-0.222656 -1.570312,-0.667969 -0.355469,-0.453125 -0.535157,-1.117187 -0.535157,-2"
       id="path12"
       inkscape:connector-curvature="0" />
    <path
       d="m 18.234375,24.78125 0,0.84375 -1.53125,0 0,4.269531 -1.164063,0 0,-4.269531 -1.53125,0 0,-0.84375 4.226563,0"
       id="path14"
       inkscape:connector-curvature="0" />
    <path
       d="m 18.976562,29.894531 0,-0.84375 1.265626,0 0,-3.425781 -1.265626,0 0,-0.84375 3.691407,0 0,0.84375 -1.257813,0 0,3.425781 1.257813,0 0,0.84375 -3.691407,0"
       id="path16"
       inkscape:connector-curvature="0" />
  </g>
</svg>

<svg width="32" xmlns="http://www.w3.org/2000/svg" height="32" viewBox="0 0 32 32" xmlns:xlink="http://www.w3.org/1999/xlink">
<path style="fill:#edaf02" d="M 5.332031 0.667969 C 4.648438 0.667969 4 1.3125 4 2 L 4 30 C 4 30.648438 4.6875 31.332031 5.332031 31.332031 L 26.667969 31.332031 C 27.3125 31.332031 28 30.648438 28 30 L 28 2 C 28 1.3125 27.351562 0.667969 26.667969 0.667969 Z "/>
<path style="fill:#fff" d="M 10 21.332031 L 10 11.332031 L 22 11.332031 L 22 21.332031 L 15.332031 21.332031 L 15.332031 16 L 18.667969 16 L 18.667969 18 L 17.332031 18 L 17.332031 19.332031 L 20 19.332031 L 20 13.332031 L 12 13.332031 L 12 21.332031 Z "/>
<path style="fill:#000;fill-opacity:.196" d="M 4 23.332031 L 4 30 C 4 30.648438 4.6875 31.332031 5.332031 31.332031 L 26.667969 31.332031 C 27.3125 31.332031 28 30.648438 28 30 L 28 23.332031 Z "/>
<g style="fill:#fff">
<path d="M 10.507812 27.332031 C 10.507812 27.582031 10.515625 27.816406 10.535156 28.035156 C 10.558594 28.25 10.605469 28.4375 10.667969 28.597656 C 10.734375 28.757812 10.828125 28.882812 10.949219 28.976562 C 11.066406 29.070312 11.226562 29.117188 11.425781 29.117188 C 11.621094 29.117188 11.777344 29.070312 11.898438 28.976562 C 12.023438 28.882812 12.117188 28.757812 12.179688 28.597656 C 12.246094 28.429688 12.292969 28.242188 12.308594 28.027344 C 12.335938 27.8125 12.347656 27.582031 12.347656 27.332031 C 12.347656 27.085938 12.335938 26.855469 12.308594 26.640625 C 12.292969 26.417969 12.246094 26.230469 12.179688 26.070312 C 12.117188 25.910156 12.023438 25.785156 11.90625 25.691406 C 11.789062 25.597656 11.628906 25.550781 11.425781 25.550781 C 11.226562 25.550781 11.066406 25.597656 10.949219 25.691406 C 10.828125 25.785156 10.734375 25.914062 10.667969 26.078125 C 10.605469 26.238281 10.558594 26.425781 10.535156 26.640625 C 10.515625 26.855469 10.507812 27.085938 10.507812 27.332031 M 9.332031 27.332031 C 9.332031 26.453125 9.519531 25.789062 9.886719 25.34375 C 10.257812 24.890625 10.769531 24.667969 11.425781 24.667969 C 12.109375 24.667969 12.628906 24.890625 12.984375 25.34375 C 13.34375 25.789062 13.519531 26.453125 13.519531 27.332031 C 13.519531 28.214844 13.339844 28.878906 12.976562 29.332031 C 12.613281 29.777344 12.101562 30 11.4375 30 C 10.753906 30 10.230469 29.777344 9.867188 29.332031 C 9.511719 28.878906 9.332031 28.214844 9.332031 27.332031 "/>
<path d="M 18.234375 24.78125 L 18.234375 25.625 L 16.703125 25.625 L 16.703125 29.894531 L 15.539062 29.894531 L 15.539062 25.625 L 14.007812 25.625 L 14.007812 24.78125 L 18.234375 24.78125 "/>
<path d="M 18.976562 29.894531 L 18.976562 29.050781 L 20.242188 29.050781 L 20.242188 25.625 L 18.976562 25.625 L 18.976562 24.78125 L 22.667969 24.78125 L 22.667969 25.625 L 21.410156 25.625 L 21.410156 29.050781 L 22.667969 29.050781 L 22.667969 29.894531 L 18.976562 29.894531 "/>
</g>
</svg>
